Papirus/48x48/apps/borderlands-2.svg

<svg xmlns="http://www.w3.org/2000/svg" width="48" height="48" version="1">
 <rect style="fill:#aa3131" width="40" height="40" x="4" y="4" rx="20" ry="20"/>
 <path fill="#fff" style="opacity:0.1" d="m24 4c-11.08 0-20 8.92-20 20 0 0.168 0.008 0.333 0.0117 0.5 0.2647-10.846 9.0763-19.5 19.988-19.5s19.724 8.6539 19.988 19.5c0.004-0.16686 0.0117-0.33213 0.0117-0.5 0-11.08-8.92-20-20-20z"/>
 <path opacity=".2" d="m4.0117 24.5c-0.0041 0.167-0.0117 0.332-0.0117 0.5 0 11.08 8.92 20 20 20s20-8.92 20-20c0-0.16787-0.0076-0.33314-0.01172-0.5-0.264 10.846-9.076 19.5-19.988 19.5s-19.724-8.654-19.988-19.5z"/>
 <path style="opacity:0.2" d="m 27.319529,9.3518887 c -1.689068,-0.362015 -3.453901,-0.4465579 -5.177919,-0.245031 -2.50176,0.2924054 -4.924124,1.1854943 -7.026678,2.5902573 -2.078448,1.388537 -3.785178,3.219108 -5.015162,5.376816 -0.4712602,0.826667 -0.8730984,1.708678 -1.1939626,2.623024 -0.2242919,0.639785 -0.4290758,1.380001 -0.569404,2.053181 -0.7295183,3.507126 -0.2658953,7.123812 1.326299,10.339221 0.1150024,0.232139 0.118451,0.238661 0.1285621,0.233048 0.011044,-0.0049 0.063179,-0.07965 0.8039845,-1.125247 2.789998,-3.937882 6.558219,-9.309068 10.977758,-15.642674 1.346895,-1.930133 1.720229,-2.464055 1.787819,-2.565159 0.419182,-0.627257 0.848006,-1.088148 1.330524,-1.42916 0.115769,-0.08163 0.399549,-0.243912 0.525585,-0.300351 0.580653,-0.260146 1.195214,-0.336693 1.884627,-0.232301 0.190519,0.02884 0.31237,0.05503 0.529368,0.113164 0.216998,0.05812 0.335672,0.09654 0.515044,0.166607 0.649264,0.254192 1.145073,0.628194 1.517734,1.143709 0.08091,0.111919 0.245701,0.394322 0.304953,0.522831 0.247318,0.536518 0.388079,1.149672 0.43749,1.902766 0.01947,0.29226 0.291508,3.409021 0.497954,5.704 0.321405,3.572742 0.631627,6.878362 1.160816,12.353554 0.267619,2.768093 0.427137,4.433876 0.498443,5.19615 0.0165,0.179256 0.03206,0.330504 0.03419,0.335717 0.0064,0.01268 0.01033,0.01146 0.137244,-0.07018 0.769909,-0.495163 1.54116,-1.095946 2.223617,-1.732279 1.759448,-1.640454 3.11328,-3.657749 3.97523,-5.922746 0.211953,-0.557263 0.353064,-0.996556 0.515739,-1.603499 0.09869,-0.36822 0.139555,-0.562235 0.209405,-0.873932 0.639905,-3.045798 0.376473,-6.192725 -0.762622,-9.099693 C 38.432142,17.979695 37.812053,16.827517 37.077665,15.785257 35.088369,12.962186 32.269926,10.874862 28.999744,9.8038855 28.477433,9.6328788 27.862366,9.4678703 27.319536,9.3518963 Z m -0.436905,4.2600063 c -1.209946,-0.125726 -1.985076,0.728899 -2.646621,1.628513 -3.132156,5.423203 -6.47096,11.296567 -9.859216,17.342118 -0.974321,1.738415 -1.929173,3.448911 -1.932709,3.462102 -0.0029,0.01068 0.03887,0.05744 0.205233,0.224941 1.909528,1.924889 4.271575,3.325096 6.881294,4.0815 0.326161,0.09419 0.320034,0.09224 0.627359,0.168053 0.710163,0.174395 1.331359,0.289923 2.011437,0.370761 2.021659,0.240291 4.05032,0.0868 6.020856,-0.455374 0.07814,-0.02149 0.143787,-0.04341 0.14625,-0.04677 0.0017,-0.0064 0.01325,-0.526778 0.03641,-2.216963 0.09039,-6.598751 0.140987,-13.430353 0.148451,-19.982997 -0.106582,-1.974039 -0.01131,-4.029689 -1.638752,-4.575894 z"/>
 <path style="fill:#f7b400" d="m 27.319529,8.3518875 c -1.689068,-0.362015 -3.453901,-0.4465579 -5.177919,-0.245031 -2.50176,0.2924054 -4.924124,1.1854944 -7.026678,2.5902575 -2.078448,1.388537 -3.785178,3.219108 -5.015162,5.376816 -0.4712602,0.826667 -0.8730984,1.708678 -1.1939626,2.623024 -0.2242919,0.639785 -0.4290758,1.380001 -0.569404,2.053181 -0.7295183,3.507126 -0.2658953,7.123812 1.326299,10.339221 0.1150024,0.232139 0.118451,0.238661 0.1285621,0.233048 0.011044,-0.0049 0.063179,-0.07965 0.8039845,-1.125247 2.789998,-3.937882 6.558219,-9.309068 10.977758,-15.642674 1.346895,-1.930133 1.720229,-2.464055 1.787819,-2.565159 0.419182,-0.627257 0.848006,-1.088148 1.330524,-1.42916 0.115769,-0.08163 0.399549,-0.243912 0.525585,-0.300351 0.580653,-0.2601458 1.195214,-0.3366934 1.884627,-0.232301 0.190519,0.02884 0.31237,0.05503 0.529368,0.113164 0.216998,0.05812 0.335672,0.09654 0.515044,0.166607 0.649264,0.254192 1.145073,0.628194 1.517734,1.143709 0.08091,0.111919 0.245701,0.394322 0.304953,0.522831 0.247318,0.536518 0.388079,1.149672 0.43749,1.902766 0.01947,0.29226 0.291508,3.409021 0.497954,5.704 0.321405,3.572742 0.631627,6.878362 1.160816,12.353554 0.267619,2.768093 0.427137,4.433876 0.498443,5.19615 0.0165,0.179256 0.03206,0.330504 0.03419,0.335717 0.0064,0.01268 0.01033,0.01146 0.137244,-0.07018 0.769909,-0.495163 1.54116,-1.095946 2.223617,-1.732279 1.759448,-1.640454 3.11328,-3.657749 3.97523,-5.922746 0.211953,-0.557263 0.353064,-0.996556 0.515739,-1.603499 0.09869,-0.36822 0.139555,-0.562235 0.209405,-0.873932 0.639905,-3.045798 0.376473,-6.192725 -0.762622,-9.099693 C 38.432142,16.979694 37.812053,15.827516 37.077665,14.785256 35.088369,11.962185 32.269926,9.8748611 28.999744,8.8038843 28.477433,8.6328776 27.862366,8.4678691 27.319536,8.3518951 Z m -0.436905,4.2600065 c -1.209946,-0.125726 -1.985076,0.728899 -2.646621,1.628513 -3.132156,5.423203 -6.47096,11.296567 -9.859216,17.342118 -0.974321,1.738415 -1.929173,3.448911 -1.932709,3.462102 -0.0029,0.01068 0.03887,0.05744 0.205233,0.224941 1.909528,1.924889 4.271575,3.325096 6.881294,4.0815 0.326161,0.09419 0.320034,0.09224 0.627359,0.168053 0.710163,0.174395 1.331359,0.289923 2.011437,0.370761 2.021659,0.240291 4.05032,0.0868 6.020856,-0.455374 0.07814,-0.02149 0.143787,-0.04341 0.14625,-0.04677 0.0017,-0.0064 0.01325,-0.526778 0.03641,-2.216963 0.09039,-6.598751 0.140987,-13.430353 0.148451,-19.982997 -0.106582,-1.974039 -0.01131,-4.029689 -1.638752,-4.575894 z"/>
 <path style="fill:#ffffff;opacity:0.2" d="M 23.441406 8.0097656 C 23.007121 8.024523 22.573583 8.0570402 22.142578 8.1074219 C 19.640818 8.3998273 17.217788 9.2925025 15.115234 10.697266 C 13.036786 12.085803 11.329593 13.916511 10.099609 16.074219 C 9.6283492 16.900886 9.2271142 17.78292 8.90625 18.697266 C 8.6819581 19.337051 8.4762657 20.07682 8.3359375 20.75 C 8.0870178 21.94667 7.9873338 23.155534 8.0136719 24.357422 C 8.0493895 23.486606 8.1559774 22.61515 8.3359375 21.75 C 8.4762657 21.07682 8.6819581 20.337051 8.90625 19.697266 C 9.2271142 18.78292 9.6283492 17.900886 10.099609 17.074219 C 11.329593 14.916511 13.036786 13.085803 15.115234 11.697266 C 17.217788 10.292503 19.640818 9.3998273 22.142578 9.1074219 C 23.866596 8.905895 25.631245 8.9895475 27.320312 9.3515625 C 27.863143 9.4675365 28.477689 9.6336808 29 9.8046875 C 32.270182 10.875664 35.088829 12.962085 37.078125 15.785156 C 37.812513 16.827416 38.432459 17.980075 38.896484 19.164062 C 39.565394 20.871118 39.924993 22.661365 39.984375 24.464844 C 40.048944 22.324852 39.689021 20.186615 38.896484 18.164062 C 38.432459 16.980075 37.812513 15.827416 37.078125 14.785156 C 35.088829 11.962085 32.270182 9.8756643 29 8.8046875 C 28.477689 8.6336808 27.863143 8.4675365 27.320312 8.3515625 C 26.053511 8.0800513 24.744261 7.9654936 23.441406 8.0097656 z M 26.449219 12.609375 C 25.48124 12.701028 24.81518 13.453072 24.236328 14.240234 C 21.104172 19.663437 17.765209 25.53648 14.376953 31.582031 C 13.402632 33.320446 12.446895 35.031731 12.443359 35.044922 C 12.440459 35.055602 12.482074 35.10203 12.648438 35.269531 C 12.696498 35.317979 12.748244 35.362375 12.796875 35.410156 C 13.058916 34.937198 13.58112 34.001983 14.376953 32.582031 C 17.765209 26.53648 21.104172 20.663437 24.236328 15.240234 C 24.897873 14.34062 25.672867 13.485602 26.882812 13.611328 C 28.488102 14.150098 28.417516 16.158353 28.517578 18.107422 C 28.518105 17.804123 28.52114 17.489663 28.521484 17.1875 C 28.414902 15.213461 28.510255 13.157533 26.882812 12.611328 C 26.731569 12.595612 26.587501 12.596282 26.449219 12.609375 z"/>
</svg>

<svg xmlns="http://www.w3.org/2000/svg" width="48" height="48" version="1">
 <circle style="opacity:0.2" cx="-24" cy="25" r="20" transform="scale(-1,1)"/>
 <circle style="fill:#aa3131" cx="-24" cy="24" r="20" transform="scale(-1,1)"/>
 <path style="opacity:0.2" d="M 27.32,9.3519 C 25.63,8.9899 23.866,8.9053 22.142,9.1069 19.64,9.3993 17.217,10.292 15.115,11.697 13.036,13.086 11.33,14.916 10.1,17.074 9.629,17.901 9.227,18.783 8.906,19.697 8.682,20.337 8.477,21.077 8.336,21.75 7.607,25.257 8.071,28.874 9.663,32.089 L 9.791,32.322 C 9.791,32.322 23.293,13.09 23.361,12.989 23.78,12.362 24.209,11.901 24.691,11.56 24.807,11.479 25.091,11.316 25.217,11.26 25.798,11 26.412,10.923 27.102,11.028 27.473,11.083 27.828,11.183 28.146,11.307 28.795,11.561 29.291,11.935 29.664,12.451 29.745,12.563 29.909,12.845 29.969,12.974 30.216,13.51 30.357,14.123 30.406,14.877 L 32.598,38.466 32.735,38.396 C 33.505,37.901 34.276,37.3 34.958,36.664 36.718,35.023 38.072,33.006 38.934,30.741 39.146,30.184 39.589,28.575 39.659,28.263 40.299,25.218 40.035,22.071 38.896,19.164 38.432,17.98 37.812,16.828 37.078,15.785 35.088,12.962 32.27,10.875 29,9.8039 28.477,9.6329 27.862,9.4679 27.32,9.3519 Z M 26.883,13.612 C 25.673,13.486 24.898,14.341 24.236,15.24 L 12.444,36.045 C 12.444,36.045 12.483,36.102 12.649,36.27 14.559,38.194 16.921,39.595 19.531,40.351 20.247,40.558 21.489,40.809 22.169,40.89 24.191,41.13 26.22,40.977 28.19,40.435 L 28.337,40.388 28.521,18.188 C 28.415,16.214 28.51,14.158 26.883,13.612 Z"/>
 <path style="fill:#f7b400" d="M 27.32,8.3519 C 25.63,7.9899 23.866,7.9053 22.142,8.1069 19.64,8.3993 17.217,9.2924 15.115,10.697 13.036,12.086 11.33,13.916 10.1,16.074 9.629,16.901 9.227,17.783 8.906,18.697 8.682,19.337 8.477,20.077 8.336,20.75 7.607,24.257 8.071,27.874 9.663,31.089 L 9.791,31.322 C 9.791,31.322 23.293,12.09 23.361,11.989 23.78,11.362 24.209,10.901 24.691,10.56 24.807,10.479 25.091,10.316 25.217,10.26 25.798,9.9997 26.412,9.9231 27.102,10.028 27.473,10.083 27.828,10.183 28.146,10.307 28.795,10.561 29.291,10.935 29.664,11.451 29.745,11.563 29.909,11.845 29.969,11.974 30.216,12.51 30.357,13.123 30.406,13.877 L 32.598,37.466 32.735,37.396 C 33.505,36.901 34.276,36.3 34.958,35.664 36.718,34.023 38.072,32.006 38.934,29.741 39.146,29.184 39.589,27.575 39.659,27.263 40.299,24.218 40.035,21.071 38.896,18.164 38.432,16.98 37.812,15.828 37.078,14.785 35.088,11.962 32.27,9.8749 29,8.8039 28.477,8.6329 27.862,8.4679 27.32,8.3519 Z M 26.883,12.612 C 25.673,12.486 24.898,13.341 24.236,14.24 L 12.444,35.045 C 12.444,35.045 12.483,35.102 12.649,35.27 14.559,37.194 16.921,38.595 19.531,39.351 20.247,39.558 21.489,39.809 22.169,39.89 24.191,40.13 26.22,39.977 28.19,39.435 L 28.337,39.388 28.521,17.188 C 28.415,15.214 28.51,13.158 26.883,12.612 Z"/>
 <path style="opacity:0.1;fill:#ffffff" d="M 24,4 A 20,20 0 0 1 44,24 20,20 0 0 1 43.978,24.582 20,20 0 0 0 24,5 20,20 0 0 0 4.021,24.418 20,20 0 0 1 4,24 20,20 0 0 1 24,4 Z"/>
 <path style="opacity:0.2;fill:#ffffff" d="M 23.441,8.0098 C 24.744,7.9655 26.053,8.0801 27.32,8.3516 27.862,8.4676 28.477,8.6337 29,8.8047 32.27,9.8757 35.088,11.962 37.078,14.785 37.812,15.828 38.432,16.98 38.897,18.164 39.689,20.187 40.049,22.325 39.984,24.465 39.925,22.662 39.565,20.871 38.897,19.164 38.432,17.98 37.812,16.828 37.078,15.785 35.088,12.962 32.27,10.876 29,9.8047 28.477,9.6337 27.862,9.4676 27.32,9.3516 25.63,8.9896 23.867,8.9058 22.143,9.1074 19.641,9.3998 17.217,10.292 15.115,11.697 13.036,13.086 11.33,14.916 10.1,17.074 9.629,17.901 9.227,18.783 8.906,19.697 8.682,20.337 8.477,21.077 8.336,21.75 8.156,22.615 8.049,23.487 8.014,24.357 7.987,23.156 8.087,21.947 8.336,20.75 8.477,20.077 8.682,19.337 8.906,18.697 9.227,17.783 9.629,16.901 10.1,16.074 11.33,13.916 13.036,12.086 15.115,10.697 17.217,9.2927 19.641,8.3998 22.143,8.1074 22.574,8.057 23.007,8.0245 23.441,8.0098 Z M 26.449,12.609 C 26.588,12.596 26.732,12.596 26.883,12.611 28.51,13.157 28.415,15.214 28.521,17.188 L 28.514,18.043 C 28.419,16.114 28.47,14.144 26.883,13.611 25.673,13.485 24.898,14.341 24.236,15.24 L 12.801,35.414 C 12.751,35.365 12.698,35.319 12.648,35.27 12.482,35.102 12.443,35.045 12.443,35.045 L 24.236,14.24 C 24.816,13.454 25.481,12.701 26.449,12.609 Z"/>
</svg>
